src/components/00-materials/images-raw/Major Crisis.svg

<svg width="96" height="96" viewBox="0 0 96 96" fill="none" xmlns="http://www.w3.org/2000/svg">
<path d="M24.09 27.51L49.93 41.54L56.24 38.28L72.9 47.42" stroke="#00008F" stroke-width="2" stroke-linecap="round" stroke-linejoin="round"/>
<path d="M64.86 47.4199H72.9V42.8499M78.16 20.9299V58.4299M18.52 58.4299V20.9299M30.45 30.9999V51.1099C30.45 51.5899 29.75 51.9899 28.9 51.9899H26.76C25.91 51.9899 25.21 51.5899 25.21 51.1099V28.1099L30.45 30.9999ZM40.19 36.2599V51.1099C40.19 51.5899 39.49 51.9899 38.64 51.9899H36.5C35.64 51.9899 34.95 51.5899 34.95 51.1099V34.1099C34.9564 33.9984 34.9897 33.8901 35.0472 33.7943C35.1047 33.6985 35.1846 33.618 35.28 33.5599L40.19 36.2599ZM49.93 41.5399V51.1099C49.93 51.5899 49.23 51.9899 48.38 51.9899H46.24C45.38 51.9899 44.69 51.5899 44.69 51.1099V38.8199C44.6851 38.7801 44.6851 38.7398 44.69 38.6999L49.93 41.5399ZM56.05 42.6199H58.05C58.4823 42.6199 58.8969 42.7917 59.2026 43.0973C59.5083 43.403 59.68 43.8176 59.68 44.2499V50.3599C59.6829 50.5795 59.641 50.7973 59.5571 51.0003C59.4732 51.2032 59.3489 51.3869 59.1918 51.5403C59.0346 51.6937 58.848 51.8135 58.6431 51.8925C58.4382 51.9715 58.2194 52.0081 58 51.9999H56C55.5677 51.9999 55.1531 51.8282 54.8474 51.5225C54.5417 51.2168 54.37 50.8022 54.37 50.3699V44.2499C54.3699 44.0316 54.4136 43.8155 54.4987 43.6144C54.5837 43.4133 54.7082 43.2313 54.8649 43.0793C55.0216 42.9273 55.2073 42.8083 55.4109 42.7294C55.6144 42.6504 55.8318 42.6132 56.05 42.6199Z" stroke="#00008F" stroke-width="2" stroke-linecap="round" stroke-linejoin="round"/>
<path d="M81.19 15.4099H15.5C14.1193 15.4099 13 16.5292 13 17.9099V18.4199C13 19.8006 14.1193 20.9199 15.5 20.9199H81.19C82.5707 20.9199 83.69 19.8006 83.69 18.4199V17.9099C83.69 16.5292 82.5707 15.4099 81.19 15.4099Z" stroke="#00008F" stroke-width="2" stroke-linecap="round" stroke-linejoin="round"/>
<path d="M72.64 86L49.45 63.94M48.34 15.41V11V15.41ZM48.34 86V63.94V86ZM24.04 86L47.24 63.94L24.04 86Z" stroke="#00008F" stroke-width="2" stroke-linecap="round" stroke-linejoin="round"/>
<path d="M81.23 58.4299H15.76C14.2357 58.4299 13 59.6634 13 61.1849C13 62.7065 14.2357 63.9399 15.76 63.9399H81.23C82.7543 63.9399 83.99 62.7065 83.99 61.1849C83.99 59.6634 82.7543 58.4299 81.23 58.4299Z" stroke="#00008F" stroke-width="2" stroke-linecap="round" stroke-linejoin="round"/>
</svg>

<svg width="96" height="96" viewBox="0 0 96 96" fill="none" xmlns="http://www.w3.org/2000/svg"><path d="M24.09 27.51l25.84 14.03 6.31-3.26 16.66 9.14" stroke="#00008F" stroke-width="2" stroke-linecap="round" stroke-linejoin="round"/><path d="M64.86 47.42h8.04v-4.57m5.26-21.92v37.5m-59.64 0v-37.5M30.45 31v20.11c0 .48-.7.88-1.55.88h-2.14c-.85 0-1.55-.4-1.55-.88v-23L30.45 31zm9.74 5.26v14.85c0 .48-.7.88-1.55.88H36.5c-.86 0-1.55-.4-1.55-.88v-17a.69.69 0 01.33-.55l4.91 2.7zm9.74 5.28v9.57c0 .48-.7.88-1.55.88h-2.14c-.86 0-1.55-.4-1.55-.88V38.82a.492.492 0 010-.12l5.24 2.84zm6.12 1.08h2a1.63 1.63 0 011.63 1.63v6.11A1.62 1.62 0 0158 52h-2a1.63 1.63 0 01-1.63-1.63v-6.12a1.629 1.629 0 011.68-1.63zM81.19 15.41H15.5a2.5 2.5 0 00-2.5 2.5v.51a2.5 2.5 0 002.5 2.5h65.69a2.5 2.5 0 002.5-2.5v-.51a2.5 2.5 0 00-2.5-2.5zM72.64 86L49.45 63.94m-1.11-48.53V11v4.41zm0 70.59V63.94 86zm-24.3 0l23.2-22.06L24.04 86z" stroke="#00008F" stroke-width="2" stroke-linecap="round" stroke-linejoin="round"/><path d="M81.23 58.43H15.76A2.758 2.758 0 0013 61.185a2.757 2.757 0 002.76 2.755h65.47a2.757 2.757 0 002.76-2.755 2.758 2.758 0 00-2.76-2.755z" stroke="#00008F" stroke-width="2" stroke-linecap="round" stroke-linejoin="round"/></svg>
